assets/Map of japan/Flat/map_of_japan_flat.svg

<svg width="32" height="32" viewBox="0 0 32 32" fill="none" xmlns="http://www.w3.org/2000/svg">
<path d="M22 9.01001H22.53C22.81 9.01001 23.03 8.79001 23.03 8.51001C23.03 8.23001 23.25 8.01001 23.53 8.01001H24.79C24.92 8.01001 25.05 8.06 25.14 8.16L25.82 8.84C25.93 8.95 26.08 9 26.23 8.98L26.7 8.93001C26.86 8.91001 27 8.82 27.08 8.67L27.85 7.27C27.94 7.11 28.11 7.01001 28.29 7.01001H29.49C29.77 7.01001 29.99 6.79001 29.99 6.51001V5.22C29.99 5.09 29.94 4.96001 29.84 4.87001L29.13 4.16C29.04 4.07 28.91 4.01001 28.78 4.01001H27.15C26.41 4.01001 25.7 3.72 25.17 3.19L24.13 2.15001C24.04 2.06001 23.91 2 23.78 2H22.42C22.14 2 21.92 2.22 21.92 2.5V3.5C21.92 3.78 22.14 4 22.42 4H22.49C22.77 4 22.99 4.22 22.99 4.5V5.5C22.99 5.78 22.77 6 22.49 6H22.39C21.61 6 20.99 6.63001 20.99 7.40001V7.99001C21 8.56001 21.45 9.01001 22 9.01001Z" fill="#00D26A"/>
<path d="M7.11999 22.3201L6.54998 23.17C6.30998 23.53 6.56999 24.02 6.99999 24.02H13.37C13.71 24.02 13.98 24.29 13.98 24.63V24.6501C13.98 25.4101 14.59 26.02 15.35 26.02H15.48C16.31 26.02 16.98 25.35 16.98 24.52C16.98 24.23 17.19 23.98 17.47 23.92L21.03 23.2101C21.65 23.09 22.22 22.78 22.66 22.33L22.8 22.19C22.92 22.07 23.07 22.0101 23.24 22.0101H23.26C23.72 22.0101 24.17 21.83 24.5 21.5C24.81 21.19 24.99 20.77 24.99 20.33V16.1201C24.99 16.0501 25 15.9901 25.02 15.9301L25.89 13.31C25.95 13.13 25.92 12.93 25.82 12.78L24.35 10.58C24.14 10.27 23.73 10.1801 23.42 10.3701L22.46 10.9601C22.17 11.1401 21.99 11.46 21.99 11.8V15.2901C21.99 15.6301 21.72 15.9001 21.38 15.9001C21.14 15.9001 20.93 16.04 20.83 16.25L20.16 17.67C20.06 17.88 19.84 18.02 19.61 18.02C19.27 18.02 19 17.75 19 17.41V17.34C19 17 18.73 16.73 18.39 16.73H17.61C17.27 16.73 17 17 17 17.34V17.92C17 18.05 16.96 18.17 16.89 18.27L16.47 18.86C15.51 20.21 13.96 21.0101 12.31 21.0101H9.56999C8.57999 21.0201 7.66999 21.5101 7.11999 22.3201Z" fill="#00D26A"/>
<path d="M2.98999 27.52V29.52C2.98999 29.8 3.20999 30.02 3.48999 30.02H3.92C5.14 30.02 6.19999 29.19 6.48999 28.01L6.92 26.29C6.96 26.12 6.90999 25.94 6.78999 25.82L5.14 24.17C5.05 24.08 4.91999 24.02 4.78999 24.02H3.31C3.12 24.02 2.95 24.13 2.86 24.3L2.04999 25.92C2.01999 25.99 2 26.07 2 26.14V26.52C2 26.8 2.22 27.02 2.5 27.02C2.77 27.02 2.98999 27.24 2.98999 27.52Z" fill="#00D26A"/>
<path d="M12.42 25.02C12.74 25.02 13 25.28 13 25.6C13 25.85 12.84 26.07 12.61 26.15L10.4 26.89C10.16 26.97 10 27.19 10 27.44C10 27.76 9.74 28.02 9.42 28.02H8.57999C8.25999 28.02 8 27.76 8 27.44V26.9C8 26.36 8.30999 25.87 8.78999 25.63L9.87999 25.08C9.95999 25.04 10.05 25.02 10.14 25.02H12.42Z" fill="#00D26A"/>
<path d="M19.71 16.02C19.32 16.02 19 15.7 19 15.31C19 15.12 19.07 14.94 19.21 14.81L19.8 14.22C19.93 14.08 20.11 14.01 20.3 14.01C20.69 14.01 21.01 14.33 21.01 14.72C21.01 14.91 20.93 15.09 20.8 15.22L20.21 15.81C20.08 15.95 19.9 16.02 19.71 16.02Z" fill="#00D26A"/>
</svg>

<svg xmlns="http://www.w3.org/2000/svg" width="32" height="32" fill="none"><path fill="#00D26A" d="M22 9.01h.53c.28 0 .5-.22.5-.5s.22-.5.5-.5h1.26c.13 0 .26.05.35.15l.68.68c.11.11.26.16.41.14l.47-.05c.16-.02.3-.11.38-.26l.77-1.4c.09-.16.26-.26.44-.26h1.2c.28 0 .5-.22.5-.5V5.22a.47.47 0 0 0-.15-.35l-.71-.71a.51.51 0 0 0-.35-.15h-1.63c-.74 0-1.45-.29-1.98-.82l-1.04-1.04a.51.51 0 0 0-.35-.15h-1.36c-.28 0-.5.22-.5.5v1c0 .28.22.5.5.5h.07c.28 0 .5.22.5.5v1c0 .28-.22.5-.5.5h-.1c-.78 0-1.4.63-1.4 1.4v.59c.01.57.46 1.02 1.01 1.02ZM7.12 22.32l-.57.85c-.24.36.02.85.45.85h6.37c.34 0 .61.27.61.61v.02c0 .76.61 1.37 1.37 1.37h.13c.83 0 1.5-.67 1.5-1.5 0-.29.21-.54.49-.6l3.56-.71c.62-.12 1.19-.43 1.63-.88l.14-.14c.12-.12.27-.18.44-.18h.02c.46 0 .91-.18 1.24-.51.31-.31.49-.73.49-1.17v-4.21c0-.07.01-.13.03-.19l.87-2.62c.06-.18.03-.38-.07-.53l-1.47-2.2a.69.69 0 0 0-.93-.21l-.96.59c-.29.18-.47.5-.47.84v3.49c0 .34-.27.61-.61.61-.24 0-.45.14-.55.35l-.67 1.42a.62.62 0 0 1-.55.35c-.34 0-.61-.27-.61-.61v-.07c0-.34-.27-.61-.61-.61h-.78c-.34 0-.61.27-.61.61v.58c0 .13-.04.25-.11.35l-.42.59a5.106 5.106 0 0 1-4.16 2.15H9.57c-.99.01-1.9.5-2.45 1.31ZM2.99 27.52v2c0 .28.22.5.5.5h.43c1.22 0 2.28-.83 2.57-2.01l.43-1.72a.505.505 0 0 0-.13-.47l-1.65-1.65a.51.51 0 0 0-.35-.15H3.31c-.19 0-.36.11-.45.28l-.81 1.62c-.03.07-.05.15-.05.22v.38c0 .28.22.5.5.5.27 0 .49.22.49.5Z"/><path fill="#00D26A" d="M12.42 25.02a.58.58 0 0 1 .19 1.13l-2.21.74c-.24.08-.4.3-.4.55 0 .32-.26.58-.58.58h-.84a.58.58 0 0 1-.58-.58v-.54c0-.54.31-1.03.79-1.27l1.09-.55c.08-.04.17-.06.26-.06h2.28ZM19.71 16.02c-.39 0-.71-.32-.71-.71 0-.19.07-.37.21-.5l.59-.59c.13-.14.31-.21.5-.21.39 0 .71.32.71.71 0 .19-.08.37-.21.5l-.59.59c-.13.14-.31.21-.5.21Z"/></svg>
